X:1
T:Sur tous regretz
T:Jean de Castro
T:Source : La fleur des chansons à 3---Louvain---P.Phalèse---1574. Editor : André Vierendeels (14/08/18) Notes : Original clefs : G2, C2, C3 Original note values have been halved Editorial accidentals above the staff
T:Sur tous regretz
T:©
T:©
T:©
T:©
C:Jean de Castro
Z:©
%%score [ 1 2 3 ]
L:1/8
Q:1/4=120
M:2/2
K:F
V:1 treble nm="Soprano" snm="S"
V:2 treble nm="Alto" snm="A"
V:3 treble-8 nm="Tenor" snm="T"
V:1
 d8- | d8- | d8- | d8 | _e6 d2 | c4 z2 _e2- | e2 d4 c2 | d2 B2 A4 | B2 d2 f3 e | dc B3 ABc | %10
w: Sur|_|||tous re-|gretz, le|_ mien plus|pi- teux pleu-|re, sur tous _|_ _ _ _ _ _|
 d3 c BA G2 | F2 f4 c2 | d2 c2 A2 B2 | A4 =B4 | z2 d2 d2 G2 | g2 z f2 d z d | d2 z G g4 | %17
w: |re- gretz, le|mien plus pi- teux|pleu- re,|iet- tant sous-|pirs, sous- pirs, sous-|pirs, sous- pirs,|
 z d d2 z A =B2 | z2 d2 f2 d2 | c2 c2 d2 z d | f3 e d2 g2- | g2 ^f2 z4 | z2 d2 f2 e2 | d4 f3 f | %24
w: sous- pirs, sous- pirs|tres- per- çant|mon las cueur, car|iay _ _ per-|* du,|car iay per-|dul'a- mi- a-|
 f3 e/d/ c2 d2 | z2 B3 A/G/ A2 | B4 z2 B2 | c6 B2 | A4 d4 | d2 c2 B2 B2 | A4 d4 | z2 c2 c2 d2 | %32
w: * * * * ble|li- * * *|queur, que|tant ie|plains, et|plain- dray en am-|ple'heu- re,|et plain- dray|
 cB B4 A2 | B4 d4- | d8- | d8- | d8- | d4 c4- | c4 c4 | =B8 |] %40
w: en- * am- ple'heu-|re, sur|_|||* tous|_ re-|gretz.|
V:2
 z4 G,4 | B,3 A, G,F, G,2- | G,A,B,C DCDE | ^F2 G4 F2 | z2 G2 G2 B2- | B2 A2 c4 | B3 A G4 | %7
w: Sur|tous _ _ _ _|_ _ _ _ _ _ _ _|* re- gretz,|le mien plus|_ pi- teux|pleu- * *|
 ^F2 G3 F/E/ F2 | GG B4 A2 | F2 F2 G4 | z2 D2 G2 _E2 | D4 A4 | B2 AG ^F2 G2- | G^F/E/ F2 D2 z G | %14
w: |re, sur tous re-|gretz, le mien,|le mien plus|pi- teux|pleu- * * * *|* * * * re, iet-|
 G2 D2 B4 | z G A2 z ^F G2 | z G E2 C2 c2 | z B B2 z F G2- | G2 B2 AF B2- | B2 A2 B4 | z4 z2 G2 | %21
w: tant sous- pirs,|sous- pirs, sous- pirs,|iet- tant sous pirs,|sous- pirs, sous- pirs|_ tres- per- çant mon|_ las cueur,|car|
 B2 A2 G2 A2- | A2 D4 C2 | G2 B3 B B2 | A2 A3 A A2 | G4 _E4 | D4 z2 G2 | A2 G2 F4 | z2 ^F2 G2 B2- | %29
w: iay per- du, car|_ iay per-|du l'a- mi- a-|ble, l'a- mi- a-|ble li-|queur, que|tant ie plains,|et plain- dray|
 B2 A3 G G2- | G2 ^F2 z2 G2 | B2 A2 G2 ^F2 | G3 F E4 | D4 G,4 | B,3 A, G,F, G,2- | G,A,B,C DCDE | %36
w: _ en am- ple'heu-|* re, et|plain- dray en aple-|heu- * *|re, sur|tous _ _ _ _|_ _ _ _ _ _ _ _|
 ^F2 G4 F2 | z2 D2 E2 z F | E2 G3 ^F/E/ F2 | G8 |] %40
w: * re- gretz,|sur tous, sur|tous re- * * *|gretz.|
V:3
 G4 B3 A | GF G3 ABc | d3 e fefg | a2 g2 d4 | z2 c2 c2 B2 | f4 c4 | g3 f _e4 | d8 | z4 z2 A2 | %9
w: Sur tous _|_ _ _ _ _ _||* re- gretz,|le mien plus|pi- teux|pleu- * *|re,|sur|
 B3 A GFGA | B4 _E4 | B2 B2 f2 f2 | B2 c2 d4- | d4 G4- | G8 | z2 d2 d2 G2 | g2 g2 e2 z c | %17
w: tous _ _ _ _ _|_ re-|gretz, le mien plus|pi- teux pleu-|* re,|_|iet- tant sous-|pirs, iet- tant sous-|
 g2 z G d2 z2 | z2 g2 d2 B2 | f2 f2 B4 | z2 d2 g2 _e2 | d4 z2 A2 | d2 B2 A4 | z8 | z2 f3 f f2 | %25
w: pirs, sous- pirs,|tres- per- çant|mon las cueur,|car iay per-|du, car|i'ay perdu _||l'a- mi- a-|
 _e4 c4 |"^b" B2 B2 e4 | c4 d4- | d8 | z8 | z4 g4 | g2 f2 _e2 d2 |"^b" e3 d c4 |"^b" B2 G2 B3 A | %34
w: ble li-|queur, que tant|ie plains,|_||et|plain- dray en am-|ple'heu- * *|re, sur tous _|
 GF G3 ABc | d3 e fefg | a2 g2 d2 d2 | B2 B2 A2 F2 | c4 A4 | G8 |] %40
w: _ _ _ _ _ _||* re- gretz, sur|tous re- gretz, sur|tous re-|gretz.|

